X:1
T:Dunkeld Steeple
T:Dunkeld Steeple
T:Niel Gow
C:Niel Gow
L:1/8
M:4/4
K:A
V:1 treble 
V:1
 A,CEA cefg | agfe dcBA | dfBd ceAc | dcBA G2 FE | A,CEA cefg | agfe dcBA | dfBd ceAc | dBAG A4 :: %8
 agae fedc | dfBd c2 BA | dfBd ceAc | dcBA G2 FE | agae fedc | dfBd c2 BA | dfBc ceAc | dcBA A4 :| %16

